fs/sub_grid_20_filled.svg

<svg viewBox="0 0 20 20" fill="none" xmlns="http://www.w3.org/2000/svg" height="1em" width="1em">
  <path d="M6 10.5L6 12.5C6 13.3284 6.67157 14 7.5 14H9.5V10.5H6ZM6 9.5L6 7.5C6 6.67157 6.67157 6 7.5 6H9.5V9.5H6ZM10.5 6V9.5H14V7.5C14 6.67157 13.3284 6 12.5 6H10.5ZM14 10.5L10.5 10.5V14H12.5C13.3284 14 14 13.3284 14 12.5V10.5ZM6 3C4.34315 3 3 4.34315 3 6V14C3 15.6569 4.34315 17 6 17H14C15.6569 17 17 15.6569 17 14V6C17 4.34315 15.6569 3 14 3H6ZM4 10.5L6 10.5L6 9.5L4 9.5V6C4 4.89543 4.89543 4 6 4H9.5V6H10.5V4H14C15.1046 4 16 4.89543 16 6V9.5H14V10.5H16V14C16 15.1046 15.1046 16 14 16H10.5V14H9.5V16H6C4.89543 16 4 15.1046 4 14V10.5Z" fill="#212121"/>
</svg>

<svg viewBox="0 0 20 20" fill="none" xmlns="http://www.w3.org/2000/svg" height="1em" width="1em">
  <path d="M6 10.5v2A1.5 1.5 0 0 0 7.5 14h2v-3.5H6Zm0-1v-2A1.5 1.5 0 0 1 7.5 6h2v3.5H6ZM10.5 6v3.5H14v-2A1.5 1.5 0 0 0 12.5 6h-2Zm3.5 4.5h-3.5V14h2a1.5 1.5 0 0 0 1.5-1.5v-2ZM6 3a3 3 0 0 0-3 3v8a3 3 0 0 0 3 3h8a3 3 0 0 0 3-3V6a3 3 0 0 0-3-3H6Zm-2 7.5h2v-1H4V6a2 2 0 0 1 2-2h3.5v2h1V4H14a2 2 0 0 1 2 2v3.5h-2v1h2V14a2 2 0 0 1-2 2h-3.5v-2h-1v2H6a2 2 0 0 1-2-2v-3.5Z" fill="#212121"/>
</svg>
